X:889
T:Ronnie Cooper Two Step 
C:Joe Buchanan's Scottish Tome - Page 448.0
I:448 0
R:Two-step
Z:Carl Allison
L:1/8
M:6/8
K:A
P:A
W:Play: A twice, B twice, A once, C twice, A once
%%vskip 0
E |: "A"A3 E2 A | "A"c3 A3 | "A"ece fec | "A"e3 "F#"e2 c |
"Bm"B3 F2 B | "Bm"d3 B3 | "B7"b2 a g2 f | "E7"efe dcB |
"A"A3 E2 A | "A"c3 A3 | "A"ece fec | "A"e3 "F#"e2 c |
"Bm"B2 c d2 e | "Bm"f2 a "B7"g2 f | "E7"efe dcB |1 "A"Afe "E7"dcB :|2 "A"A3 A3 |]
P:B
[K:D] A | "D"DFA d2 e | "D"f2 d A2 F | "D"DFA def | "Em"g2 e B3 |
"A"ccc c2 d | "A"e2 ^d e2 f | "Em"gfe "E7"dcB | "A"ABA GFE |
"D"DFA d2 e | "D"f2 d A2 F | "D"DFA def | "Em"g2 e B3 |
"A"ccc c2 d | "A"e2^d e2f | "Em"gec "A"ABc | "D"d3 d2 :|
P:C
[K:G] D | "G"B3 G3 | "G"D3 B,3 | "G"G,B,D "E7"GAB | "Am"c2 A E3 |
"Am"c3 A3 | "Am"E3 C3 | "A7"A,^CE A2 G | "D"F2 E D3 |
"G"B3 G3 | "G"D3 B,3 | "G"G,B,D "E7"GAB | "Am"c2 A E3 |
"D"FFF F2 G | "D"A2 ^G A2 B | "Am" cAF "D"DEF | "G"G3 G2 :|
W:Errata: Added a repeat symbol at first bar of first section

